!!!COM: Bach, Johann Sebastian
!!!OTL@@DE: 362. Es ist gewi&szlig;lich an der Zeit
!!!OTL@EN: It is certainly time
!!!SCA: BWV 248.59
**kern	**kern	**kern	**kern
*staff2	*staff2	*staff1	*staff1
*Iorgan	*Iorgan	*Iorgan	*Iorgan
*>[A,A,B]	*>[A,A,B]	*>[A,A,B]	*>[A,A,B]
*>norep[A,B]	*>norep[A,B]	*>norep[A,B]	*>norep[A,B]
*>A	*>A	*>A	*>A
!bass	!tenor	!alto	!sprno
*clefF4	*clefF4	*clefG2	*clefG2
*k[f#]	*k[f#]	*k[f#]	*k[f#]
*met(C)	*met(C)	*met(C)	*met(C)
*M4/4	*M4/4	*M4/4	*M4/4
*MM60	*MM60	*MM60	*MM60
8G\L	4B/	4d\	4g/
8F#\J	.	.	.
=1	=1	=1	=1
4.E\	4B/	8e\L	8g/L
.	.	8f#\J	8a/J
.	4e/	4g\	4b/
8D\	.	.	.
4.C\	8e/L	8g\L	4a/
.	8d/J	8f#\J	.
.	4d/	4g\	4g/
8BB\	.	.	.
=2	=2	=2	=2
8C\L	8e/L	4g\	4a/
8AA\J	8c/J	.	.
4D\	8A/L	4f#\	4a/
.	8d/J	.	.
4GG;\	4d;/	4g;\	4b;/
4C\	4e/	8e\L	8g/L
.	.	8f#\J	8a/J
=3	=3	=3	=3
8G\L	4d/	8g\	4b/
8F#\J	.	4b\	.
4E\	8G/L	.	4cc/
.	8A/J	16a\LL	.
.	.	16g\JJ	.
8B\L	8B/L	4f#\	4dd/
8A\J	8c/J	.	.
4G\	4d/	4g\	8cc/L
.	.	.	8b/J
=4	=4	=4	=4
4d\	4d/	4g\	8a/L
.	.	.	8g/J
4D\	8c/L	4f#\	4a/
.	8B/J	.	.
4G;\	4B;/	4d;\	4g;/
=:|!	=:|!	=:|!	=:|!
*>B	*>B	*>B	*>B
8G\L	4d/	4g\	4b/
8A\J	.	.	.
=5	=5	=5	=5
!!linebreak: 2
8B\L	4d/	4.g\	4b/
8c\J	.	.	.
4d\	8d/L	.	4a/
.	8c/J	8f#\	.
8G\L	8B/L	8f#\L	4g/
8A\J	8c/J	8e\J	.
4B\	8F#/L	8e\L	4f#/
.	8B/J	8d#\J	.
=6	=6	=6	=6
8E\L	8B/L	4e\	8g/L
8F#\J	8A/J	.	8a/J
4G\	8A/L	4dn\	4b/
.	8G/J	.	.
4D;\	4F#;/	4d;\	4a;/
8d\L	4F#/	4d\	4a/
8c\J	.	.	.
=7	=7	=7	=7
4.B\	8G/L	8d\L	4g/
.	8A/J	8c\J	.
.	8B/L	4d\	4f#/
8A\	8c/J	.	.
4.G\	8B/L	8d\L	4g/
.	8A/J	8c\J	.
.	4G/	4B\	4d/
8F#\	.	.	.
=8	=8	=8	=8
8E\L	4G/	4B\	4g/
8D\J	.	.	.
4C\	8F#/L	4e\	4a/
.	8E/J	.	.
4BB;\	4F#;/	4d#;\	4b;/
4E\	8E/L	4B\	8g/L
.	8F#/J	.	8a/J
=9	=9	=9	=9
8E\L	4.G/	4e\	4b/
8D\J	.	.	.
4C\	.	4e\	4cc/
.	8A/	.	.
8BB\L	8B/L	8d\L	4dd/
8AA\J	8c/J	16e\L	.
.	.	16f#\JJ	.
4GG\	4d/	4g\	8cc/L
.	.	.	8b/J
=10	=10	=10	=10
2D\	4d/	4g\	8a/L
.	.	.	8g/J
.	8c/L	4f#\	4a/
.	8B/J	.	.
4GG;\	4B;/	4d;\	4g;/
==	==	==	==
*-	*-	*-	*-
!!!ENC: Craig Stuart Sapp
!!!END: 2004/12/06/
!!chor2scor: -l 2 -s 0.6 -o %b.pmx
